X: 124004
T: POLDWILLY BRIDGE
Q: "Reel."
R: Reel.
%R: reel
B: James Kerr "Merry Melodies" v.1 p.24 s.0 #4
Z: 2017 John Chambers <jc:trillian.mit.edu>
M: C
L: 1/8
K: D
|: uA !segno!|\
vd2(AF) DdAF | d2(AF) EecA |\
d2(AF) DdAF | EecA d2-d H:|\
uA |\
d2(fd) adfd | adfd bdgb |
d2(fd) afdA | GBAF E2(Ee) |\
d2(3(fed) adfd | adfd bdgb |\
afge fdef | gfed cA"_D.C."Bc |]

%%sep 1 1 500
%%sep 1 1 500

